X:22
T:The Tobacco Pox
N:page 17 on manuscript
M:2/4
L:1/8
K:C
G>ccA | BGcG | d2 (d>ef/) | {f}e2 z2 | c>eg>a | gecA | d>e (f/d/)c/B/ |c2 c2 | g>a {a}gf/e/ |
c'2 a2 | g>a gf/e/ | {e}d2 z G | Gc c>d | cecA | d>e (f/d/)c/B/ | c2 z2 ||

